X:450
T:
R:vals
S:Efter skomakare Puckssons förespelning (Klintehamn).
O:Gotland, Klintehamn
M:3/4
L:1/8
K:D
D3 FAe|f4 d2|D3 FAd|f4 d2|A3 ceg|b4 a2|A3 cef|g4 f2|D3 FAe|f4 d2|D3 FAd|f4 d2|A3 ceg|b4 a2|
g2 B2 c2|d4 z2::f4 g2|B4 c2|e4 d2|A6|f4 g2|B4 c2|(ed)(ed)(cB)|A3 GFE|D3 FAd|f4 d2|D3 FAd|f4 d2|A3 ceg|b4 a2|g2 B2 c2|d4 z2::
K:G
d4 g2|B4 e2|(dB)(GF)(GA)|B2A2 A2|c4 e2|A4 c2|(FG)(AB)(cd)|e2 d2 d2|d4 g2|B4 e2|(de)(fg)(ab)|
d'2 c'b c'2|a4 c'2|f4 e2|(de)(fg)(ab)|g4 z2:|

